X: 23194
T: Le Tourment
R: jig
M: 6/8
K: Cmajor
|:"F"~A,3 A,B,C|"C"G,CB, CEF|"Dm7"G2 GGFE|FED EDC|
"F"~A,3 A,B,C|"C"G,CB, CEF|"Dm7"GFE FED|1 "G"G,CB, C2 B,:|2 "G"G,CB, "C"C3||
|:"C"CG,C DG,D|EG,F EDC|"F"~A,3 FEF|"G"~G3 GAB|
"Am"~c3 ~G3|"Em"~A3 ~E3|"F"FED EDC|1 "G"DCB, G,A,B,:|2 "G"DCB, CDB,||

